X:1
T:Title
%%score { 1 | 2 }
L:1/8
M:6/8
K:Ab
V:1 treble nm="Grand Piano"
V:2 bass 
V:1
 z3 z2[Q:1/4=81] [CE] | [CE][_C=D][=CE] [CEA][_DEG][EA] | [DFB][DFA][A,DF] [A,CE]2 E | F=EF AGF | %4
 [CE]3- [CE]2 [CE] | [CE][_C=D][=CE] [CEA][_DEG][EA] | [DFB][DFA][A,DF] [A,CE]2 [A,E]/[A,E]/ | %7
 [A,DF][DFA][DFA] [B,EG][CEA][DEB] | [CEA]6 | c_c=c e2 c | [Gc][GB][G=A] [GB]3 | %11
 [GB][G=A][GB] [Gd]2 [DEG] | [CEB][CEA][DF] [CE]2 [CE] | [CE][_C=D][=CE] [CEA][_DEG][EA] | %14
 [DFB][DFA][A,DF] [A,CE]2 [A,E] | [A,DF][DFA][DFA] [B,EG][CEA][DEB] |[M:5/8] [CEA]-[CEA]- [CEA]3 |] %17
V:2
 z3 z2 [A,,A,] | [A,,A,][A,,A,][A,,A,] A,,B,,C, | D,D,D, A,,2 [C,A,] | %3
 [D,A,D][D,G,D][D,A,D] [D,F,D][D,G,D][D,A,D] | [A,,A,]3- [A,,A,]2 [A,,A,] | %5
 [A,,A,][A,,A,][A,,A,] A,,B,,C, | D,D,D, A,,2 C,/C,/ | D,D,D, E,E,E, | A,,6 | %9
 [A,EA][A,=DA][A,EA] [A,CA]2 [A,EA] | [E,E][E,D][E,C] [E,D]3 | [E,D][E,C][E,D] [E,B,]2 E, | %12
 A,,A,,[A,,A,] [A,,A,]2 [A,,A,] | [A,,A,][A,,A,][A,,A,] A,,B,,C, | D,D,D, A,,2 C, | D,D,D, E,E,E, | %16
[M:5/8] A,,-A,,- A,,3 |] %17

